packages/foundations/assets/icons/functional/images/file/document.svg

<svg xmlns="http://www.w3.org/2000/svg" width="32" height="32" fill="none"><path fill="#1A1C1F" fill-rule="evenodd" d="M7.6 2.101a2.29 2.29 0 0 0-1.575 1.825c-.069.426-.069 23.722 0 24.148a2.29 2.29 0 0 0 1.932 1.902c.443.064 15.643.064 16.086 0a2.285 2.285 0 0 0 1.933-1.933c.07-.488.065-19.602-.006-20.038-.117-.724-.121-.728-2.657-3.269-2.167-2.171-2.352-2.343-2.7-2.507l-.373-.176-6.213-.01c-4.916-.008-6.258.004-6.427.058m10.384 4.526L18 9.253l.133.232c.082.143.225.286.373.374l.241.141 2.626.016 2.627.015v8.901c0 8.02-.008 8.909-.084 8.984-.075.076-.867.084-7.916.084s-7.841-.008-7.916-.084C8.008 27.841 8 26.686 8 16s.008-11.841.084-11.916c.075-.075.6-.084 4.984-.084h4.901zm3.909-.494L23.759 8H20V6.133c0-1.026.006-1.866.014-1.866.007 0 .853.84 1.879 1.866M10.48 14.156c-.379.228-.546.657-.43 1.105.081.31.242.502.537.638.202.094.47.099 5.413.099s5.211-.005 5.413-.099a.89.89 0 0 0 .537-.638c.117-.453-.062-.9-.448-1.116l-.21-.118h-5.299l-5.3.001zm0 4c-.379.228-.546.657-.43 1.105.081.31.242.502.537.638.202.094.47.099 5.413.099s5.211-.005 5.413-.099a.89.89 0 0 0 .537-.638c.117-.453-.062-.9-.448-1.116l-.21-.118h-5.299l-5.3.001zm0 4c-.379.228-.546.657-.43 1.105.081.31.242.502.537.638.202.094.47.099 5.413.099s5.211-.005 5.413-.099a.89.89 0 0 0 .537-.638c.117-.453-.062-.9-.448-1.116l-.21-.118h-5.299l-5.3.001z"/></svg>

<svg width="32" height="32" viewBox="0 0 32 32" fill="none" xmlns="http://www.w3.org/2000/svg"><path d="M7.600 2.101 C 6.767 2.367,6.167 3.062,6.025 3.926 C 5.956 4.352,5.956 27.648,6.025 28.074 C 6.187 29.063,6.969 29.833,7.957 29.976 C 8.400 30.040,23.600 30.040,24.043 29.976 C 25.044 29.831,25.831 29.044,25.976 28.043 C 26.046 27.555,26.041 8.441,25.970 8.005 C 25.853 7.281,25.849 7.277,23.313 4.736 C 21.146 2.565,20.961 2.393,20.613 2.229 L 20.240 2.053 14.027 2.043 C 9.111 2.035,7.769 2.047,7.600 2.101 M17.984 6.627 L 18.000 9.253 18.133 9.485 C 18.215 9.628,18.358 9.771,18.506 9.859 L 18.747 10.000 21.373 10.016 L 24.000 10.031 24.000 18.932 C 24.000 26.952,23.992 27.841,23.916 27.916 C 23.841 27.992,23.049 28.000,16.000 28.000 C 8.951 28.000,8.159 27.992,8.084 27.916 C 8.008 27.841,8.000 26.686,8.000 16.000 C 8.000 5.314,8.008 4.159,8.084 4.084 C 8.159 4.009,8.684 4.000,13.068 4.000 L 17.969 4.000 17.984 6.627 M21.893 6.133 L 23.759 8.000 21.880 8.000 L 20.000 8.000 20.000 6.133 C 20.000 5.107,20.006 4.267,20.014 4.267 C 20.021 4.267,20.867 5.107,21.893 6.133 M10.480 14.156 C 10.101 14.384,9.934 14.813,10.050 15.261 C 10.131 15.571,10.292 15.763,10.587 15.899 C 10.789 15.993,11.057 15.998,16.000 15.998 C 20.943 15.998,21.211 15.993,21.413 15.899 C 21.708 15.763,21.869 15.571,21.950 15.261 C 22.067 14.808,21.888 14.361,21.502 14.145 L 21.292 14.027 15.993 14.027 L 10.693 14.028 10.480 14.156 M10.480 18.156 C 10.101 18.384,9.934 18.813,10.050 19.261 C 10.131 19.571,10.292 19.763,10.587 19.899 C 10.789 19.993,11.057 19.998,16.000 19.998 C 20.943 19.998,21.211 19.993,21.413 19.899 C 21.708 19.763,21.869 19.571,21.950 19.261 C 22.067 18.808,21.888 18.361,21.502 18.145 L 21.292 18.027 15.993 18.027 L 10.693 18.028 10.480 18.156 M10.480 22.156 C 10.101 22.384,9.934 22.813,10.050 23.261 C 10.131 23.571,10.292 23.763,10.587 23.899 C 10.789 23.993,11.057 23.998,16.000 23.998 C 20.943 23.998,21.211 23.993,21.413 23.899 C 21.708 23.763,21.869 23.571,21.950 23.261 C 22.067 22.808,21.888 22.361,21.502 22.145 L 21.292 22.027 15.993 22.027 L 10.693 22.028 10.480 22.156 " fill="#1A1C1F" stroke="none" fill-rule="evenodd"></path></svg>
